flaticon/files-and-folders/folder.svg

<svg xmlns="http://www.w3.org/2000/svg" width="32" height="32" viewBox="0 0 24 24">
    <path d="M 22.398438 6.398438 L 21.960938 6.398438 C 21.78125 5.476562 20.984375 4.800781 20 4.800781 L 13.800781 4.800781 L 11.921875 2.558594 C 11.839844 2.441406 11.71875 2.398438 11.601562 2.398438 L 2.800781 2.398438 C 1.921875 2.398438 1.199219 3.121094 1.199219 4 L 1.199219 6.449219 C 0.511719 6.628906 0 7.257812 0 8 L 0 20 C 0 20.878906 0.71875 21.601562 1.601562 21.601562 L 22.398438 21.601562 C 23.28125 21.601562 24 20.878906 24 20 L 24 8 C 24 7.121094 23.28125 6.398438 22.398438 6.398438 Z M 2 4 C 2 3.558594 2.359375 3.199219 2.800781 3.199219 L 11.398438 3.199219 L 13.28125 5.441406 C 13.359375 5.558594 13.480469 5.601562 13.601562 5.601562 L 20 5.601562 C 20.519531 5.601562 20.960938 5.921875 21.121094 6.398438 L 2 6.398438 Z M 23.199219 20 C 23.199219 20.441406 22.839844 20.800781 22.398438 20.800781 L 1.601562 20.800781 C 1.160156 20.800781 0.800781 20.441406 0.800781 20 L 0.800781 8 C 0.800781 7.558594 1.160156 7.199219 1.601562 7.199219 L 11.199219 7.199219 L 11.199219 8 L 12 8 L 12 7.199219 L 22.398438 7.199219 C 22.839844 7.199219 23.199219 7.558594 23.199219 8 Z M 23.199219 20"/>
    <path d="M12 9.601562L12.800781 9.601562 12.800781 10.398438 12 10.398438zM12 12.800781L12.800781 12.800781 12.800781 13.601562 12 13.601562zM11.199219 13.601562L12 13.601562 12 14.398438 11.199219 14.398438zM11.199219 12L12 12 12 12.800781 11.199219 12.800781zM12 11.199219L12.800781 11.199219 12.800781 12 12 12zM11.199219 10.398438L12 10.398438 12 11.199219 11.199219 11.199219zM12 8L12.800781 8 12.800781 8.800781 12 8.800781zM11.199219 8.800781L12 8.800781 12 9.601562 11.199219 9.601562zM10.398438 15.199219L10.398438 16.800781C10.398438 17.679688 11.121094 18.398438 12 18.398438 12.878906 18.398438 13.601562 17.679688 13.601562 16.800781L13.601562 15.199219 12.800781 15.199219 12.800781 14.398438 12 14.398438 12 15.199219zM12.800781 16.800781C12.800781 17.238281 12.441406 17.601562 12 17.601562 11.558594 17.601562 11.199219 17.238281 11.199219 16.800781L11.199219 16 12.800781 16zM7.601562 8.800781L2.800781 8.800781C2.558594 8.800781 2.398438 8.960938 2.398438 9.199219 2.398438 9.441406 2.558594 9.601562 2.800781 9.601562L7.601562 9.601562C7.839844 9.601562 8 9.441406 8 9.199219 8 8.960938 7.839844 8.800781 7.601562 8.800781zM7.601562 10.398438L2.800781 10.398438C2.558594 10.398438 2.398438 10.558594 2.398438 10.800781 2.398438 11.039062 2.558594 11.199219 2.800781 11.199219L7.601562 11.199219C7.839844 11.199219 8 11.039062 8 10.800781 8 10.558594 7.839844 10.398438 7.601562 10.398438zM7.601562 10.398438"/>
</svg>

<svg xmlns="http://www.w3.org/2000/svg" width="32" height="32" viewBox="0 0 24 24">
    <path d="M22.398 6.398h-.437A1.973 1.973 0 0 0 20 4.801h-6.2l-1.878-2.242a.377.377 0 0 0-.32-.16H2.8c-.88 0-1.602.722-1.602 1.601v2.45C.512 6.628 0 7.257 0 8v12c0 .879.719 1.602 1.602 1.602h20.796c.883 0 1.602-.723 1.602-1.602V8c0-.879-.719-1.602-1.602-1.602zM2 4c0-.441.36-.8.8-.8h8.598l1.883 2.241c.078.118.2.16.32.16H20c.52 0 .96.32 1.121.797H2zm21.2 16c0 .441-.36.8-.802.8H1.602C1.16 20.8.8 20.442.8 20V8c0-.441.36-.8.8-.8H11.2V8H12v-.8h10.398c.442 0 .801.359.801.8zm0 0"/>
    <path d="M12 9.602h.8v.796H12zm0 0M12 12.8h.8v.802H12zm0 0M11.2 13.602h.8v.796h-.8zm0 0M11.2 12h.8v.8h-.8zm0 0M12 11.2h.8v.8H12zm0 0M11.2 10.398h.8v.801h-.8zm0 0M12 8h.8v.8H12zm0 0M11.2 8.8h.8v.802h-.8zm0 0M10.398 15.2v1.6c0 .88.723 1.598 1.602 1.598.879 0 1.602-.718 1.602-1.597v-1.602H12.8v-.8H12v.8zm2.403 1.6c0 .438-.36.802-.801.802a.804.804 0 0 1-.8-.801V16h1.6zm0 0M7.602 8.8H2.8c-.242 0-.403.16-.403.4 0 .241.16.402.403.402h4.8c.239 0 .399-.16.399-.403 0-.238-.16-.398-.398-.398zm0 0M7.602 10.398H2.8c-.242 0-.403.16-.403.403 0 .238.16.398.403.398h4.8c.239 0 .399-.16.399-.398 0-.242-.16-.403-.398-.403zm0 0"/>
</svg>
